X: 37909
T: South Wind, The
R: waltz
M: 3/4
K: Gmajor
|:d2|B3AG2|B3cd2|A4 Bc|B3AG2|1 E3DE2|G4 G2:|2 E3DEF|G4 ef||
g3 a ag|g3fe2|d3 e ed|d4Ac|B3AG2|B3cd2|A4ef|
g3 a af|g3fe2|d3 e ed|d4c2|B3AG2|Ac3F2|G4 G2||

